lib/svgicon/recipe.svg

<?xml version="1.0" encoding="utf-8"?>
<!-- Generator: Adobe Illustrator 24.0.0, SVG Export Plug-In . SVG Version: 6.00 Build 0)  -->
<svg version="1.1"
	 id="svg8" inkscape:version="0.92.2 (5c3e80d, 2017-08-06)" sodipodi:docname="block.svg" xmlns:cc="http://creativecommons.org/ns#" xmlns:dc="http://purl.org/dc/elements/1.1/" xmlns:inkscape="http://www.inkscape.org/namespaces/inkscape" xmlns:rdf="http://www.w3.org/1999/02/22-rdf-syntax-ns#" xmlns:sodipodi="http://sodipodi.sourceforge.net/DTD/sodipodi-0.dtd" xmlns:svg="http://www.w3.org/2000/svg"
	 xmlns="http://www.w3.org/2000/svg" xmlns:xlink="http://www.w3.org/1999/xlink" x="0px" y="0px" viewBox="0 0 400 400"
	 style="enable-background:new 0 0 400 400;" xml:space="preserve">
<style type="text/css">
	.st0{fill:none;stroke:#000000;stroke-width:30;stroke-linejoin:round;stroke-miterlimit:10;}
	.st1{fill:none;stroke:#000000;stroke-width:20;stroke-linecap:round;stroke-linejoin:round;stroke-miterlimit:10;}
</style>
<sodipodi:namedview  bordercolor="#666666" borderopacity="1.0" id="base" inkscape:current-layer="layer1" inkscape:cx="42.665839" inkscape:cy="253.62202" inkscape:document-units="px" inkscape:pagecheckerboard="false" inkscape:pageopacity="0.0" inkscape:pageshadow="2" inkscape:showpageshadow="false" inkscape:window-height="1001" inkscape:window-maximized="1" inkscape:window-width="1920" inkscape:window-x="-9" inkscape:window-y="-9" inkscape:zoom="0.70710678" pagecolor="#ffffff" scale-x="1" showgrid="true" units="px">
	
		<inkscape:grid  empspacing="5" id="grid14" snapvisiblegridlinesonly="true" spacingx="2.6458" spacingy="2.6458" type="xygrid" units="px" visible="true">
		</inkscape:grid>
</sodipodi:namedview>
<path class="st0" d="M369.7,166.3l-48.5,28l-139.6,80.6c-13.3,7.7-30.1,5.6-41.1-5.2l-61.7-60.6l-48.6-47.7L217,49.5
	c13.5-8.1,30.7-5.9,41.8,5.2L369.7,166.3z"/>
<path class="st0" d="M369.7,166.3v76.8L181.6,351.8c-13.3,7.7-30.1,5.6-41.1-5.2L30.3,238.3v-76.8l48.6,47.7l61.7,60.6
	c11,10.8,27.8,12.9,41.1,5.2l139.6-80.6L369.7,166.3z"/>
<line class="st1" x1="223.7" y1="98.9" x2="282.3" y2="157.8"/>
<line class="st1" x1="204.3" y1="112.8" x2="262.9" y2="171.7"/>
<line class="st1" x1="111.6" y1="178.2" x2="153.4" y2="220.2"/>
</svg>

<svg width="400" height="400" viewBox="0 0 400 400" fill="none" xmlns="http://www.w3.org/2000/svg">
<path d="M369.7 166.3L321.2 194.3L181.6 274.9C168.3 282.6 151.5 280.5 140.5 269.7L78.8 209.1L30.2 161.4L217 49.5C230.5 41.4 247.7 43.6 258.8 54.7L369.7 166.3Z" stroke="black" stroke-width="30" stroke-miterlimit="10" stroke-linejoin="round"/>
<path d="M369.7 166.3V243.1L181.6 351.8C168.3 359.5 151.5 357.4 140.5 346.6L30.3 238.3V161.5L78.9 209.2L140.6 269.8C151.6 280.6 168.4 282.7 181.7 275L321.3 194.4L369.7 166.3Z" stroke="black" stroke-width="30" stroke-miterlimit="10" stroke-linejoin="round"/>
<path d="M223.7 98.9L282.3 157.8" stroke="black" stroke-width="20" stroke-miterlimit="10" stroke-linecap="round" stroke-linejoin="round"/>
<path d="M204.3 112.8L262.9 171.7" stroke="black" stroke-width="20" stroke-miterlimit="10" stroke-linecap="round" stroke-linejoin="round"/>
<path d="M111.6 178.2L153.4 220.2" stroke="black" stroke-width="20" stroke-miterlimit="10" stroke-linecap="round" stroke-linejoin="round"/>
</svg>
